usr/share/icons/biglinux-icons-material/scalable/apps/csd-automount.svg

<svg width="24" height="24" viewBox="0 0 24 24" fill="none" xmlns="http://www.w3.org/2000/svg">
<path fill-rule="evenodd" clip-rule="evenodd" d="M9.59604 1.11359C9.71588 1.11486 9.83043 1.0996 9.93969 1.06779C11.3755 0.973736 12.8111 0.977551 14.2467 1.07924C15.5484 1.18066 16.8085 1.46308 18.0269 1.9265C20.0525 2.76044 21.4386 4.20689 22.185 6.26585C22.6119 7.50549 22.8639 8.78021 22.9411 10.09C23.0478 11.7347 23.0096 13.3758 22.8265 15.0133C22.6895 16.1642 22.3916 17.271 21.933 18.3336C21.0824 20.1761 19.704 21.447 17.7978 22.1463C16.2531 22.6682 14.6647 22.943 13.0325 22.9706C11.1966 23.0661 9.37913 22.9287 7.57997 22.5585C4.26839 21.8208 2.22559 19.8018 1.45158 16.5017C1.12311 15.0161 0.974199 13.5124 1.00483 11.9906C0.968176 10.3724 1.14 8.77709 1.52031 7.20471C2.33171 4.11908 4.2905 2.20701 7.39669 1.46852C8.12048 1.29157 8.8536 1.17326 9.59604 1.11359Z" fill="url(#paint0_radial_3_471)"/>
<path d="M4 16.04C4 15.4877 4.44772 15.04 5 15.04H19C19.5523 15.04 20 15.4877 20 16.04V17.5C20 18.0523 19.5523 18.5 19 18.5H5C4.44772 18.5 4 18.0523 4 17.5V16.04ZM11.2895 4.21739C11.6808 3.82231 12.3192 3.82231 12.7105 4.21739L18.3127 9.87382C18.9379 10.5052 18.4907 11.5775 17.6022 11.5775H6.39785C5.50927 11.5775 5.06206 10.5052 5.68734 9.87382L11.2895 4.21739Z" fill="white"/>
<defs>
<radialGradient id="paint0_radial_3_471" cx="0" cy="0" r="1" gradientUnits="userSpaceOnUse" gradientTransform="translate(12 1) rotate(90) scale(22)">
<stop stop-color="#2DA2FF"/>
<stop offset="1" stop-color="#0075D2"/>
</radialGradient>
</defs>
</svg>

<svg xmlns="http://www.w3.org/2000/svg" width="24" height="24" fill="none"><path fill="url(#a)" fill-rule="evenodd" d="M9.596 1.114c.12 0 .234-.014.344-.046a31.627 31.627 0 0 1 4.307.011c1.301.102 2.561.384 3.78.848 2.025.833 3.412 2.28 4.158 4.339.427 1.24.679 2.514.756 3.824a27.94 27.94 0 0 1-.114 4.923 11.88 11.88 0 0 1-.894 3.32c-.85 1.843-2.229 3.114-4.135 3.813a15.624 15.624 0 0 1-4.765.825 21.423 21.423 0 0 1-5.453-.413c-3.312-.737-5.354-2.756-6.128-6.056a19.047 19.047 0 0 1-.447-4.511 18.491 18.491 0 0 1 .515-4.786c.812-3.086 2.77-4.998 5.877-5.736a13.953 13.953 0 0 1 2.199-.355Z" clip-rule="evenodd"/><path fill="#fff" d="M4 16.04a1 1 0 0 1 1-1h14a1 1 0 0 1 1 1v1.46a1 1 0 0 1-1 1H5a1 1 0 0 1-1-1v-1.46Zm7.29-11.823a1 1 0 0 1 1.42 0l5.603 5.657c.625.631.178 1.704-.71 1.704H6.397c-.889 0-1.336-1.073-.71-1.704l5.602-5.657Z"/><defs><radialGradient id="a" cx="0" cy="0" r="1" gradientTransform="matrix(0 22 -22 0 12 1)" gradientUnits="userSpaceOnUse"><stop stop-color="#2DA2FF"/><stop offset="1" stop-color="#0075D2"/></radialGradient></defs></svg>
